X:357
T:Country Serenade
T:with ornamentation
C:Roddy Dorman, as played by Patti Kusturok
S:Patti Kusturok
Z:<http://tunes.nhcountrydance.com>.
Z:Note: the slide in the second line may not be recognized by some programs; remove it if necessary.
M:2/4
L:1/8
K:G
Bc^c \
[| "G" d2 Tg>f   | "G" gd Bd   | "D7" [f2d2] Tf>e | "D7" fd AB |\
"D7" c2 Tf>e     | "D7" fd ^cd | "G" e>d B/2G/2E  |  "G" D2 !slide!Bc ||
"G"  d2 Tg>f     | "G" gd Bd   | "C" [ee]>d ef    | "C" (f<g) fe |\
"D7" (^c<d) B>=c |"D7" dc AF| "G" (G<[GB]) [GB]>[GB] |"G" [GB] |]
K:C
[|((3F/2G/2F/2) EF \
| "C" Gz cz | "C" ez z (^f/2<g/2) | "C" a>g ec   | "C" G>A GF |\
  "C" E2 G2 | "C" c2 {ef}ga      | "G7" B>A Bc  | "G7" B>F DE ||
"G7" F2 G2  | "G7" B3 ^f/2<g/2    | "G7" a>g fd  | "G7" B>c BA |\
"G7" G2 B2  | "G7" {^fg}ag z[Be] | "C" ([Be]<[ce] [c/2e/2]) ([e/2B/2][e/2c/2][e/2d/2]) | "C" [e2c2] {dc}Bc|]

